app/dist/common/images/john-marshall-bancorp.svg

<svg height="18" viewBox="0 0 18 18" width="18" xmlns="http://www.w3.org/2000/svg"><path d="m0 0h18v18h-18z" fill="#f0f3fa"/><path d="m10.42 7-1.42-4-1.42 4h-4.58l1.33 1h3.81c.38.02 1.07.19 1.11.53l.14.02c.45.07 1.61.24 1.61.97v.48a1.8 1.8 0 0 0 -.92-.24c-.59 0-2.6.34-4.2 2.65l-.1.15-.49 1.44 3.71-2.6 3.7 2.6-1.4-4.2 3.7-2.8zm-4.02 2.57 1.6-.57-2.06.22.47.35zm-.87-.66.03-.04 2.44-.37h-3.01l.55.41z" fill="#d11241"/></svg>

<!-- by TradingView --><svg width="18" height="18" viewBox="0 0 18 18" xmlns="http://www.w3.org/2000/svg"><path fill="#F0F3FA" d="M0 0h18v18H0z"/><path d="M10.42 7 9 3 7.58 7H3l1.33 1h3.81c.38.02 1.07.19 1.11.53l.14.02c.45.07 1.61.24 1.61.97V10a1.8 1.8 0 0 0-.92-.24c-.59 0-2.6.34-4.2 2.65l-.1.15L5.29 14 9 11.4l3.7 2.6-1.4-4.2L15 7h-4.58ZM6.4 9.57 8 9l-2.06.22.47.35Zm-.87-.66.03-.04L8 8.5H4.99l.55.41Z" fill="#D11241"/></svg>
